material/.icons/material/format-align-middle.svg

<svg xmlns="http://www.w3.org/2000/svg" viewBox="0 0 24 24"><path d="M13 6l2-2 1.42 1.42L12 9.84 7.58 5.42 9 4l2 2V2h2v4M3 11h18v2H3v-2m10 7v4h-2v-4l-2 2-1.42-1.42L12 14.16l4.42 4.42L15 20l-2-2z"/></svg>

<?xml version="1.0" encoding="UTF-8"?><!DOCTYPE svg PUBLIC "-//W3C//DTD SVG 1.1//EN" "http://www.w3.org/Graphics/SVG/1.1/DTD/svg11.dtd"><svg xmlns="http://www.w3.org/2000/svg" xmlns:xlink="http://www.w3.org/1999/xlink" version="1.1" id="mdi-format-align-middle" width="24" height="24" viewBox="0 0 24 24"><path d="M13,6L15,4L16.42,5.42L12,9.84L7.58,5.42L9,4L11,6V2H13V6M3,11H21V13H3V11M13,18V22H11V18L9,20L7.58,18.58L12,14.16L16.42,18.58L15,20L13,18Z" /></svg>
